X:1
T:Montluçon, 88.86.66.86
T:Montluçon, 88.86.66.86
T:Catherine Booth-Clibborn, 1882
T:Public Domain Courtesy of the Cyber Hymnal™
C:Catherine Booth-Clibborn, 1882
Z:Public Domain
Z:Courtesy of the Cyber Hymnal™
%%score ( 1 2 ) ( 3 4 )
L:1/8
Q:1/4=125
M:3/2
K:G
V:1 treble 
V:2 treble 
V:3 bass 
V:4 bass 
V:1
 D2 [DB]2 [CA]2 | [B,G]6 [=FB]2 [Ec]2 [GB]2 | [FA]8 [Gd]4 | [Gd]6 [Gc]2 [GB]2 [FA]2 | %4
 [EG]2 [FA]2 !fermata![GB]2 | D2 [DB]2 [CA]2 | [B,G]6 [=FB]2 [Ec]2 [DB]2 | [DA]8 [Dd]4 | %8
 [Ed]6 [Ec]2 [GB]2 [FA]2 | G8 [GB]4 | [GB]6 [^DB]2 [EB]2 [=FB]2 | [Ec]8 [FA]4 | %12
 A6 [FA]2 [GA]2 [FA]2 | [GB]6 D2 [DB]2 [CA]2 | [B,G]6 [=FB]2 [Ec]2 [DB]2 | [DA]8 [Dd]4 | %16
 [Ed]6 [Ec]2 [GB]2 [FA]2 | G8 |] %18
V:2
 D2 x4 | x12 | x12 | x12 | x6 | D2 x4 | x12 | x12 | x12 | G8 x4 | x12 | x12 | A6 x6 | x6 D2 x4 | %14
 x12 | x12 | x12 | G8 |] %18
V:3
 [G,B,]2 G,2 [D,F,]2 | G,6 [G,D]2 [G,C]2 [G,D]2 | [D,D]8 [B,,D]4 | [C,E]6 [C,E]2 [D,D]2 [D,C]2 | %4
 [E,B,]2 [D,D]2 !fermata![G,D]2 | [G,B,]2 G,2 [D,F,]2 | [E,G,]6 [D,G,]2 [C,G,]2 [G,,G,]2 | %7
 [D,F,]8 [B,,G,]4 | [C,G,]6 [C,G,]2 [D,D]2 C2 | [G,B,]8 [G,D]4 | [G,D]6 [F,A,]2 [E,G,]2 [D,G,]2 | %11
 [C,G,]8 [D,D]4 | [F,D]6 [D,D]2 [E,^C]2 [D,D]2 | [G,D]6 [G,B,]2 G,2 [D,F,]2 | %14
 [E,G,]6 [D,G,]2 [C,G,]2 [G,,G,]2 | [D,F,]8 [B,,G,]4 | [C,G,]6 [C,G,]2 [D,D]2 C2 | [G,B,]8 |] %18
V:4
 x2 G,2 x2 | G,6 x6 | x12 | x12 | x6 | x2 G,2 x2 | x12 | x12 | x12 | x12 | x12 | x12 | x12 | %13
 x8 G,2 x2 | x12 | x12 | x12 | x8 |] %18

